X:1
T: Mrs. Major L. Stewart of the Island of Java
C:William Marshall
R:Strathspey
Q: 128
K:A
M:4/4
L:1/16
|:CD|E3D C3B, A,2A2 A2cd|e3c A2E2 F2B2 B2c2|d3e f2ed cefg a2gf|e3c B3A E2A2 A2CD|
E3D C3B, A,2A2 A2cd|e3c A2E2 F2B2 B2c2|d3e f2ed cefg a2gf|((3fed) ((3edc) ((3dcB) ((3cBA) E2A2 A2cd|
e3c A2f2 d3B E2d2|c2A2 e2E2 G2B2 B2c2|dcde fefg bagf e3d|ceAc BdGB E2A2 A2c2|
e3c A2f2 d3B E2d2|c2A2 E2C2 B,2B2 B2c2|dcde fefg ag1/2a1/2b1/2a1/2g1/2f1/2 e3d|ceAc BdGB E2A2 A2:|
